dist/flags/s/660.svg

<svg width="16" height="12" viewBox="0 0 16 12" fill="none" xmlns="http://www.w3.org/2000/svg">
<mask id="mask0" mask-type="alpha" maskUnits="userSpaceOnUse" x="0" y="0" width="16" height="12">
<rect width="16" height="12" fill="white"/>
</mask>
<g mask="url(#mask0)">
<path fill-rule="evenodd" clip-rule="evenodd" d="M0 0V12H16V0H0Z" fill="#2E42A5"/>
<mask id="mask1" mask-type="alpha" maskUnits="userSpaceOnUse" x="0" y="0" width="16" height="12">
<path fill-rule="evenodd" clip-rule="evenodd" d="M0 0V12H16V0H0Z" fill="white"/>
</mask>
<g mask="url(#mask1)">
<path d="M12.3701 10.5623C11.7672 10.5623 11.3617 10.424 11.0788 10.1955C10.7946 9.96593 10.6022 9.61948 10.4769 9.14018C10.3511 8.65895 10.2985 8.06518 10.2789 7.36592C10.2651 6.87484 10.2677 6.34276 10.2704 5.77004C10.2712 5.60636 10.272 5.43936 10.2724 5.26904H14.5278C14.603 6.63976 14.6222 7.95176 14.3512 8.93551C14.2093 9.45075 13.9933 9.85343 13.684 10.1273C13.3792 10.397 12.9607 10.5623 12.3701 10.5623Z" fill="white" stroke="#E6E617" stroke-width="0.5"/>
<path fill-rule="evenodd" clip-rule="evenodd" d="M10.2418 8.96726C10.2418 9.99832 11.0952 11.0164 12.3581 11.0164C13.6209 11.0164 14.5899 10.078 14.7053 8.93219L10.2418 8.96726Z" fill="#82E5FF"/>
<path fill-rule="evenodd" clip-rule="evenodd" d="M10.867 7.09995C10.867 7.87408 11.5154 8.49995 12.313 8.49995C13.1107 8.49995 13.759 7.87408 13.759 7.09995C13.759 6.32582 13.1107 5.69995 12.313 5.69995C11.5154 5.69995 10.867 6.32582 10.867 7.09995ZM13.159 7.09995C13.159 7.55098 12.7803 7.91662 12.313 7.91662C11.8458 7.91662 11.467 7.55098 11.467 7.09995C11.467 6.64892 11.8458 6.28328 12.313 6.28328C12.7803 6.28328 13.159 6.64892 13.159 7.09995Z" fill="#E18600"/>
<path fill-rule="evenodd" clip-rule="evenodd" d="M12.069 5.50494C12.069 5.50494 11.5428 5.73699 11.657 6.17322C11.7712 6.60946 11.9002 6.67161 11.9002 6.67161C11.9002 6.67161 12.0861 5.72721 12.8366 5.72721L12.069 5.50494Z" fill="#E18600"/>
<path fill-rule="evenodd" clip-rule="evenodd" d="M11.1264 7.86197C11.1264 7.86197 11.5591 8.24083 11.9062 7.95296C12.2533 7.66509 12.2551 7.52186 12.2551 7.52186C12.2551 7.52186 11.3206 7.75252 11.0035 7.07234L11.1264 7.86197Z" fill="#E18600"/>
<path fill-rule="evenodd" clip-rule="evenodd" d="M13.7293 7.8044C13.7293 7.8044 13.7514 7.2297 13.3093 7.14112C12.8671 7.05254 12.7547 7.14129 12.7547 7.14129C12.7547 7.14129 13.522 7.72235 13.193 8.39689L13.7293 7.8044Z" fill="#E18600"/>
<mask id="mask2" mask-type="alpha" maskUnits="userSpaceOnUse" x="0" y="0" width="9" height="7">
<rect width="9" height="7" fill="white"/>
</mask>
<g mask="url(#mask2)">
<path d="M-1.00214 6.49987L0.978339 7.36847L9.04494 0.94433L10.0896 -0.346436L7.97176 -0.636747L4.68159 2.1316L2.03334 3.99682L-1.00214 6.49987Z" fill="#F7FCFF"/>
<path d="M-0.731018 7.10849L0.277943 7.61255L9.71445 -0.466309H8.29775L-0.731018 7.10849Z" fill="#F50100"/>
<path d="M10.0021 6.49987L8.02166 7.36847L-0.0449371 0.94433L-1.08959 -0.346436L1.02824 -0.636747L4.31841 2.1316L6.96666 3.99682L10.0021 6.49987Z" fill="#F7FCFF"/>
<path d="M9.93457 6.93667L8.92561 7.44073L4.90745 3.98176L3.71615 3.59529L-1.1901 -0.341973H0.226597L5.13009 3.50184L6.43256 3.96525L9.93457 6.93667Z" fill="#F50100"/>
<mask id="path-16-outside-1" maskUnits="userSpaceOnUse" x="-1" y="-1" width="11" height="9" fill="black">
<rect fill="white" x="-1" y="-1" width="11" height="9"/>
<path fill-rule="evenodd" clip-rule="evenodd" d="M4.99226 0H3.99226V3H0V4H3.99226V7H4.99226V4H9V3H4.99226V0Z"/>
</mask>
<path fill-rule="evenodd" clip-rule="evenodd" d="M4.99226 0H3.99226V3H0V4H3.99226V7H4.99226V4H9V3H4.99226V0Z" fill="#F50100"/>
<path d="M3.99226 0V-0.75H3.24226V0H3.99226ZM4.99226 0H5.74226V-0.75H4.99226V0ZM3.99226 3V3.75H4.74226V3H3.99226ZM0 3V2.25H-0.75V3H0ZM0 4H-0.75V4.75H0V4ZM3.99226 4H4.74226V3.25H3.99226V4ZM3.99226 7H3.24226V7.75H3.99226V7ZM4.99226 7V7.75H5.74226V7H4.99226ZM4.99226 4V3.25H4.24226V4H4.99226ZM9 4V4.75H9.75V4H9ZM9 3H9.75V2.25H9V3ZM4.99226 3H4.24226V3.75H4.99226V3ZM3.99226 0.75H4.99226V-0.75H3.99226V0.75ZM4.74226 3V0H3.24226V3H4.74226ZM0 3.75H3.99226V2.25H0V3.75ZM0.75 4V3H-0.75V4H0.75ZM3.99226 3.25H0V4.75H3.99226V3.25ZM4.74226 7V4H3.24226V7H4.74226ZM4.99226 6.25H3.99226V7.75H4.99226V6.25ZM4.24226 4V7H5.74226V4H4.24226ZM9 3.25H4.99226V4.75H9V3.25ZM8.25 3V4H9.75V3H8.25ZM4.99226 3.75H9V2.25H4.99226V3.75ZM4.24226 0V3H5.74226V0H4.24226Z" fill="#F7FCFF" mask="url(#path-16-outside-1)"/>
</g>
</g>
</g>
</svg>

<svg width="16" height="12" fill="none" xmlns="http://www.w3.org/2000/svg">
  <mask id="a" maskUnits="userSpaceOnUse" x="0" y="0" width="16" height="12">
    <path fill="#fff" d="M0 0h16v12H0z"/>
  </mask>
  <g mask="url(#a)">
    <path fill-rule="evenodd" clip-rule="evenodd" d="M0 0v12h16V0H0z" fill="#2E42A5"/>
    <mask id="b" maskUnits="userSpaceOnUse" x="0" y="0" width="16" height="12">
      <path fill-rule="evenodd" clip-rule="evenodd" d="M0 0v12h16V0H0z" fill="#fff"/>
    </mask>
    <g mask="url(#b)">
      <path d="M12.37 10.562c-.603 0-1.008-.138-1.291-.367-.284-.23-.477-.576-.602-1.055-.126-.481-.178-1.075-.198-1.774a49.768 49.768 0 01-.008-1.596l.002-.501h4.255c.075 1.37.094 2.683-.177 3.667-.142.515-.358.917-.667 1.191-.305.27-.723.435-1.314.435z" fill="#fff" stroke="#E6E617" stroke-width=".5"/>
      <path fill-rule="evenodd" clip-rule="evenodd" d="M10.242 8.967c0 1.031.853 2.05 2.116 2.05a2.332 2.332 0 002.347-2.085l-4.463.035z" fill="#82E5FF"/>
      <path fill-rule="evenodd" clip-rule="evenodd" d="M10.867 7.1c0 .774.648 1.4 1.446 1.4.798 0 1.446-.626 1.446-1.4 0-.774-.648-1.4-1.446-1.4-.798 0-1.446.626-1.446 1.4zm2.292 0c0 .451-.379.817-.846.817-.467 0-.846-.366-.846-.817 0-.451.379-.817.846-.817.467 0 .846.366.846.817z" fill="#E18600"/>
      <path fill-rule="evenodd" clip-rule="evenodd" d="M12.069 5.505s-.526.232-.412.668c.114.436.243.499.243.499s.186-.945.937-.945l-.768-.222zm-.942 2.357s.432.379.78.091c.346-.288.348-.431.348-.431s-.934.23-1.252-.45l.123.79zm2.603-.058s.021-.574-.42-.663c-.443-.088-.555 0-.555 0s.767.581.438 1.256l.536-.593z" fill="#E18600"/>
      <mask id="c" maskUnits="userSpaceOnUse" x="0" y="0" width="9" height="7">
        <path fill="#fff" d="M0 0h9v7H0z"/>
      </mask>
      <g mask="url(#c)">
        <path d="M-1.002 6.5l1.98.868L9.045.944l1.045-1.29-2.118-.29-3.29 2.768-2.649 1.865L-1.002 6.5z" fill="#F7FCFF"/>
        <path d="M-.731 7.108l1.009.505 9.437-8.08H8.298L-.731 7.109z" fill="#F50100"/>
        <path d="M10.002 6.5l-1.98.868L-.045.944-1.09-.346l2.118-.29 3.29 2.768 2.649 1.865L10.002 6.5z" fill="#F7FCFF"/>
        <path d="M9.935 6.937l-1.01.504-4.018-3.46-1.19-.386L-1.19-.342H.227L5.13 3.502l1.303.463 3.502 2.972z" fill="#F50100"/>
        <mask id="d" maskUnits="userSpaceOnUse" x="-1" y="-1" width="11" height="9" fill="#000">
          <path fill="#fff" d="M-1-1h11v9H-1z"/>
          <path fill-rule="evenodd" clip-rule="evenodd" d="M4.992 0h-1v3H0v1h3.992v3h1V4H9V3H4.992V0z"/>
        </mask>
        <path fill-rule="evenodd" clip-rule="evenodd" d="M4.992 0h-1v3H0v1h3.992v3h1V4H9V3H4.992V0z" fill="#F50100"/>
        <path d="M3.992 0v-.75h-.75V0h.75zm1 0h.75v-.75h-.75V0zm-1 3v.75h.75V3h-.75zM0 3v-.75h-.75V3H0zm0 1h-.75v.75H0V4zm3.992 0h.75v-.75h-.75V4zm0 3h-.75v.75h.75V7zm1 0v.75h.75V7h-.75zm0-3v-.75h-.75V4h.75zM9 4v.75h.75V4H9zm0-1h.75v-.75H9V3zM4.992 3h-.75v.75h.75V3zm-1-2.25h1v-1.5h-1v1.5zM4.742 3V0h-1.5v3h1.5zM0 3.75h3.992v-1.5H0v1.5zM.75 4V3h-1.5v1h1.5zm3.242-.75H0v1.5h3.992v-1.5zM4.742 7V4h-1.5v3h1.5zm.25-.75h-1v1.5h1v-1.5zM4.242 4v3h1.5V4h-1.5zM9 3.25H4.992v1.5H9v-1.5zM8.25 3v1h1.5V3h-1.5zm-3.258.75H9v-1.5H4.992v1.5zM4.242 0v3h1.5V0h-1.5z" fill="#F7FCFF" mask="url(#d)"/>
      </g>
    </g>
  </g>
</svg>
